X:1
T:Love For Sale
T:Love For Sale
T:Cole Porter
C:Cole Porter
Z:All Rights Reserved
L:1/4
M:2/2
K:Bb
V:1 treble 
%%MIDI program 0
V:1
"F7" F/F/ ||"Bb6" B B B B/B/ |"Ab6" _A A e c/A/ |"Gb6" _G G G G/G/ |"Fm6" F F c _A/F/ | %5
w: When the|on- ly sound in the|emp- ty street is the|hea- vy tread of the|hea- vy feet that be-|
"Ebm7" E E/E/"Ab7" _G3/2 F/ |"Db69" _A4 |"F7" A4- |"F7b9" A2 _G3/2 F/ |"Bbm6" F z z2 | %10
w: long to a lone- some|cop,|I|_ o- pen|shop.|
"Cm7b5" z2"F7" z F/F/ |"Bb7" B B B B/B/ |"Ab7" _A A e c/A/ |"Gb7" _G G G G/G/ | %14
w: When the|moon so long has been|gaz- ing down on the|way- ward ways of this|
"E7" =E E ^c =B/^G/ |"A69" =E E ^F3/2 E/ |"Ab7" _A4 |"F7" A4- | A2 D3/2 C/ |"Bb6" B, z z2 | z4 |: %21
w: way- ward town that her|smile be- comes a|smirk,|I|_ go to|work.||
[M:2/2]S"Ebmaj7""^A" B4- | B3 G |"Bbm7" F4- | F3 z |"Ebmaj7" z B/B/ B B | B B2 G |"Bbm7" F4- | %28
w: Love|_ for|sale,|_|Ap- pe- tiz- ing|young love for|sale.|
 F3 z |"Ebm7" z B/B/ B B |"Ab9" B c c2 |"Dbmaj7" z _A/A/"Db7#9" A A |"Gb9" _A _G G2 |"Cm7b5" F4- | %34
w: _|Love that's fresh and|still un- spoiled,|Love that's on- ly|slight- ly soiled,|Love|
"F+7" F3 _D |"Bbm6" B,4- | B,2 z2 ||"Ebmaj7""^B" B4- | B3 G |"Bbmaj7" F4- | F3 z | %41
w: _ for|sale.|_|Who|_ will|buy?|_|
"Ebmaj7" z B/B/ B B | e c B G |"Bbmaj7" F4- | F3 z |"Ebm7" z B/B/ B B |"Ab9" B c c2 | %47
w: Who would like to|sam- ple my sup-|ply?|_|Who's pre- pared to|pay the price|
"Dbmaj7" z _d/d/"Db7#9" d d |"Gb9" _d _G G2 |"Cm7b5" F4- |"F+7" F3 _D |"Bbm6" B,4- | B,3"E9" z || %53
w: For a trip to|par- a- dise?|Love|_ for|sale.|_|
"Ebm7""^C" z B,/C/ _D E |"Ab7b9" F E E2 |"Dbmaj9" z C/_D/ E F |"Fm7""Bb7b9" _A4 | %57
w: Let the po- ets|pipe of love|In their child- ish|way,|
"Ebm7" z B,/C/ _D E |"Ab7b9" F E E2 |"Dbmaj7" z C/_D/ E F |"Bbm7" B4 |"Bb7" z B,/C/ D F | %62
w: I know ev- 'ry|type of love|Bet- ter far than|they.|If you want the|
"B9" _G F"Bb7" F2 |"Ebm6" z D (3E F _G | c B B2 |"Gm7b5" _d2 c2 |"C7#5b9" _d2 c2 | %67
w: thrill of love|I've been thru the|mill of love;|Old love,|new love,|
"Fm7b5" z _c/c/ c c |"Bb7b9" _c2 B2 ||"Ebmaj7""^D" B4- | B3 G |"Bbm7" F4- | F3 z | %73
w: Ev- 'ry love but|true love.|Love|_ for|sale,|_|
"Ebmaj7" z B/B/ B B | B B2 G |"Bbmaj7" F4- | F3 z |"Ebm7" z B/B/ B B |"Ab9" B c c2 | %79
w: Ap- pe- tiz- ing|young love for|sale.|_|If you want to|buy my wares,|
"Db9" z _d/d/ d d |"Gb9" _d e e2 |"Cm7b5" f4- |"F7#5b9" f3 _d |"Bbm6" B4-!fine! | B2 z2!D.S.! :| %85
w: Fol- low me and|climb the stairs,|Love|_ for|Sale|_|

